X: 1890
T: Ufuklara Yaslanmış...
C: Kaptanzâde Ali Rıza Bey
O: Turkey
F: http://compmusic.upf.edu/node/140
N: hicaz-humayun--fantezi--nimsofyan--ufuklara_yaslanmis--kaptanzade_ali_riza_bey
N: makam= hicaz-humayun
N: form= fantezi
N: usul= nimsofyan = 2/4
M: 2/4
L: 1/16
K: C _7/8B ^c  
Q: 1/4=60
%%MIDI tuningsystem comma53
z2A3/2A/ B2A2  | f4 e4  | egfe d2^3/4c2  | \
w:   |   |   | 
d4 z4  | z2e^3/4f g2a2  | b4 .a4  | 
w:   |   |   | 
abag ^2/4fefg  | afed ^3/4cB.A2  | z2A3/2A/ B2A2  | \
w:   |   |   | 
f4 e4  | 
w:   | 
egfe d2^3/4c2  | d4 z4  | z2d'^3/4c' bag2  | \
w:   |   |   | 
zbag fed2  | 
w:   | 
^3/4cded .c2.B2  | z2A3/2A/ .A2Az  | \
w:   |   | 
z2ed ^3/4c2B2  | ^3/4c2{e}dB A4  | 
w:  U fuk la ra   |  yas *  lan *  mış   | 
z2^3/4cd e2e2  | {f}ed2{e}^3/4c e2z2  | \
w:  yor gun  dağ lar   |  *  sı ray *  *  la    | 
z2e^2/4f g{a}g^1/4fe  | f2{g}fe {e}f3/2e/d2  | 
w:  Ça dı rı *  nın   |  üs *  tü ne  *  doğ *  muş   | 
g2fe edd^3/4c  | d4 f4  | .f4 .e4  | fe2d ed^3/4c2  | \
w:  ak şam  *  yıl *  dı  |  zı   SAZ  |  Çıp lak_  |  a yak la rı *  nın   | 
e2{f}ed ^3/4c2BA  | 
w:  al *  tın *  da  bay  | 
d2B3/2A/ G2z2  | g4 gf2e  | f2{g}fe fed2  | \
w:  gın  yay *  la    |  Ey  be lâ lı   |  gök *  le rin  mağ *  rur   | 
d^3/4cB4d2  | A8  | z2AB ed^3/4cB  | 
w:  dağ la rın  kı  |  zı    |  SAZ  | 
z2A3/2A/ .B^3/4cA2  | z2ed ^3/4c2B2  | \
w:   |  U fuk la ra   | 
^3/4c2{e}dB A4  | z2^3/4cd e2e2  | {f}ed2{e}^3/4c e2z2  | 
w:  yas *  lan *  mış   |  yor gun  dağ lar   |  *  sı ray *  *  la    | 
z2e^2/4f g{a}g^1/4fe  | f2{g}fe {e}f3/2e/d2  | \
w:  Ça dı rı *  nın   |  üs *  tü ne  *  doğ *  muş   | 
g2fe edd^3/4c  | d4 f4  | 
w:  ak şam  *  yıl *  dı  |  zı   SAZ  | 
.f4 .e4  | fe2d ed^3/4c2  | e2{f}ed ^3/4c2BA  | \
w:  Çıp lak_  |  a yak la rı *  nın   |  al *  tın *  da  bay  | 
d2B3/2A/ G2z2  | g4 gf2e  | 
w:  gın  yay *  la    |  Ey  be lâ lı   | 
f2{g}fe fed2  | d^3/4cB4d2  | A2B^3/4c defg  | \
w:  gök *  le rin  mağ *  rur   |  dağ la rın  kı  |  zı   SAZ  | 
A2B^3/4c defg  | 
w:   | 
a4 z4  | a2ba a4  | a2ba g2z2  | ag2^2/4f fe=f^3/4f  | \
w:   |  *  Ne  ka dar   |  nâ rin *  sin   |  gü zel *  sin  *  bil  | 
g4 z4  | z2.a2 g^2/4fe2  | 
w:  sen    |  Bak  yor *  gun   | 
g2fe d2z2  | e2fe edd^3/4c  | d8  | z2de .f2de  | \
w:  göz le *  rim   |  kar şın *  da  *  hay  |  ran    |  Bel *  ki  SAZ  | 
.f2fe d^3/4c3  | 
w:  *  di ri li rim_  | 
e2d^3/4c cBBA  | G4 z4  | z2gf f2{g}fe  | \
w:  iç sem_ *  e lin  |  den    |  Se *  rin  *  çam   | 
e2{f}ed ^3/4c2B2  | d^3/4c.B4d2  | 
w:  ko *  ku *  lu  bir   |  tas *  çık_ ay  | 
A8  | zAB^3/4c defg  | a2B^3/4c defg  | \
w:  ran    |  SAZ  |   | 
a2ba a4  | a2ba g2z2  | 
w:  *  Ne  ka dar   |  nâ rin *  sin   | 
ag2^2/4f fe=f^3/4f  | g4 z4  | z2.a2 g^2/4fe2  | \
w:  gü zel *  sin  *  bil  |  sen    |  Bak  yor *  gun   | 
g2fe d2z2  | e2fe edd^3/4c  | 
w:  göz le *  rim   |  kar şın *  da  *  hay  | 
d8  | z2de .f2de  | .f2fe d^3/4c3  | e2d^3/4c cBBA  | \
w:  ran    |  Bel *  ki  SAZ  |  *  di ri li rim_  |  iç sem_ *  e lin  | 
G4 z4  | 
w:  den    | 
z2gf f2{g}fe  | e2{f}ed ^3/4c2B2  | d^3/4c.B4d2  | A8  | \
w:  Se *  rin  *  çam   |  ko *  ku *  lu  bir   |  tas *  çık_ ay  |  ran    | 
z2AB ed^3/4cB  | 
w:  SAZ  | 
zA2A .A4  | |


